X: 7
%
T: Annie Is My Darling
C:Capt. Fraser
O:Scotland
B:Keith Norman MacDonald : "The Skye collection of the best reels & strathspeys extant" : 1887
Z:Ralph Palmer
R:Reel
M:C
L:1/8
K:A
c | TA2 (AE) CEAB | cdBc AFFG | A/2A/2A (AE) CEAe | {/d}cAec TB2 A :| e| {/d}ce Te2 cf Tf2 | ecBA BFFd |
ce Te2 cefg | agfe Tfefg | agfe Tfgaf | ecdB cAFc | GAEA CEB,e | cAec TB2 A |]


